symbols/web/nearby_off/materialsymbolsoutlined/nearby_off_wght200grad200_40px.svg

<svg xmlns="http://www.w3.org/2000/svg" height="40" width="40"><path d="m30.083 26.25-1.958-1.917L32 20.458q.208-.25.208-.541 0-.292-.208-.542L20.625 8q-.208-.25-.521-.271-.312-.021-.604.271l-3.917 3.833-1.875-1.916 4.125-4.084q.875-.916 2.209-.895 1.333.02 2.208.895l11.833 11.875q.917.959.938 2.25.021 1.292-.854 2.167Zm2.959 10.375L26.417 30l-4.042 4.042q-.958.875-2.354.854-1.396-.021-2.271-.896L5.917 22.125Q5 21.25 5 19.854t.917-2.271l4.041-4.041-6.583-6.625 1.417-1.5 29.875 29.75ZM8 20.375l11.542 11.458q.25.25.562.25.313 0 .521-.25l3.792-3.791-2.875-2.959-1.459 1.459-6.708-6.709 1.5-1.458-3-2.917L8 19.292q-.25.25-.25.562 0 .313.25.521Zm17.167 1-6.625-6.583 1.5-1.5 6.625 6.666Z"/></svg>

<svg xmlns="http://www.w3.org/2000/svg" height="40" width="40"><path d="M30.083 26.25 28.125 24.333 32 20.458Q32.208 20.208 32.208 19.917Q32.208 19.625 32 19.375L20.625 8Q20.417 7.75 20.104 7.729Q19.792 7.708 19.5 8L15.583 11.833L13.708 9.917L17.833 5.833Q18.708 4.917 20.042 4.938Q21.375 4.958 22.25 5.833L34.083 17.708Q35 18.667 35.021 19.958Q35.042 21.25 34.167 22.125ZM33.042 36.625 26.417 30 22.375 34.042Q21.417 34.917 20.021 34.896Q18.625 34.875 17.75 34L5.917 22.125Q5 21.25 5 19.854Q5 18.458 5.917 17.583L9.958 13.542L3.375 6.917L4.792 5.417L34.667 35.167ZM8 20.375 19.542 31.833Q19.792 32.083 20.104 32.083Q20.417 32.083 20.625 31.833L24.417 28.042L21.542 25.083L20.083 26.542L13.375 19.833L14.875 18.375L11.875 15.458L8 19.292Q7.75 19.542 7.75 19.854Q7.75 20.167 8 20.375ZM25.167 21.375 18.542 14.792 20.042 13.292 26.667 19.958Z"/></svg>
